lib/healthicons/icons/solid/typography/B.svg

<svg fill="none" height="48" viewBox="0 0 48 48" width="48" xmlns="http://www.w3.org/2000/svg"><path clip-rule="evenodd" d="m14 12c0-1.1046.8954-2 2-2h10c4.4183 0 8 3.5817 8 8 0 2.3894-1.0475 4.5341-2.7084 6 1.6609 1.4659 2.7084 3.6106 2.7084 6 0 4.4183-3.5817 8-8 8h-10c-.5304 0-1.0391-.2107-1.4142-.5858s-.5858-.8838-.5858-1.4142zm12 10c2.2091 0 4-1.7909 4-4s-1.7909-4-4-4h-8v8zm-8 4h8c2.2091 0 4 1.7909 4 4s-1.7909 4-4 4h-8z" fill="#333" fill-rule="evenodd"/></svg>

<svg width="48" height="48" viewBox="0 0 48 48" fill="none" xmlns="http://www.w3.org/2000/svg">
<path fill-rule="evenodd" clip-rule="evenodd" d="M14 12C14 10.8954 14.8954 10 16 10L26 10C30.4183 10 34 13.5817 34 18C34 20.3894 32.9525 22.5341 31.2916 24C32.9525 25.4659 34 27.6106 34 30C34 34.4183 30.4183 38 26 38H16C15.4696 38 14.9609 37.7893 14.5858 37.4142C14.2107 37.0391 14 36.5304 14 36L14 12ZM26 22C28.2091 22 30 20.2091 30 18C30 15.7909 28.2091 14 26 14L18 14L18 22L26 22ZM18 26L26 26C28.2091 26 30 27.7909 30 30C30 32.2091 28.2091 34 26 34H18L18 26Z" fill="#333333"/>
</svg>
